icon-themes/sifr_svg/cmd/sc_changecasetolower.svg

<svg viewBox="0 0 16 16" xmlns="http://www.w3.org/2000/svg"><path d="m12 0v2.5625l-.28125-.28125c-.18818-.18811-.45344-.28129-.71875-.28125h-1v1c0 .26529.09304.53057.28125.71875l2 2 .28125.28125h.875l.28125-.28125 2-2c.18814-.18817.28122-.45344.28125-.71875v-1h-1c-.2653 0-.53058.0931-.71875.28125l-.28125.28125v-2.5625zm-4 6v7h1 2c1.104569 0 2-.89543 2-2 0-1.1045695-.895431-2-2-2h-2v-3zm-6 2v1h3v1h-2.5c-.828427 0-1.5.671573-1.5 1.5s.671573 1.5 1.5 1.5h3.5v-4c0-.5522847-.447715-1-1-1zm7 2h2c.552285 0 1 .447715 1 1s-.447715 1-1 1h-2zm-6.5 1h2.5v1h-2.5c-.276142 0-.5-.223858-.5-.5s.223858-.5.5-.5z" fill="#555753"/></svg>

<svg xmlns="http://www.w3.org/2000/svg" viewBox="0 0 16 16">
  <path
     style="fill:#555753"
     d="M 12 0 L 12 2.5625 L 11.71875 2.28125 C 11.53057 2.09314 11.26531 1.99996 11 2 L 10 2 L 10 3 C 10 3.26529 10.09304 3.53057 10.28125 3.71875 L 12.28125 5.71875 L 12.5625 6 L 13.4375 6 L 13.71875 5.71875 L 15.71875 3.71875 C 15.90689 3.53058 15.99997 3.26531 16 3 L 16 2 L 15 2 C 14.7347 2 14.46942 2.0931 14.28125 2.28125 L 14 2.5625 L 14 0 L 12 0 z M 8 6 L 8 13 L 9 13 L 11 13 C 12.104569 13 13 12.10457 13 11 C 13 9.8954305 12.104569 9 11 9 L 9 9 L 9 6 L 8 6 z M 2 8 L 2 9 L 5 9 L 5 10 L 2.5 10 C 1.671573 10 1 10.671573 1 11.5 C 1 12.328427 1.671573 13 2.5 13 L 6 13 L 6 9 C 6 8.4477153 5.552285 8 5 8 L 2 8 z M 9 10 L 11 10 C 11.552285 10 12 10.447715 12 11 C 12 11.552285 11.552285 12 11 12 L 9 12 L 9 10 z M 2.5 11 L 5 11 L 5 12 L 2.5 12 C 2.223858 12 2 11.776142 2 11.5 C 2 11.223858 2.223858 11 2.5 11 z "
     />
</svg>
